src/lib/packages/icons/src/assets/line/list.svg

<svg xmlns="http://www.w3.org/2000/svg" width="24" height="24" fill="none"><path fill="currentColor" d="M9.25 5.5a.75.75 0 0 1 .75-.75h11a.75.75 0 0 1 0 1.5H10a.75.75 0 0 1-.75-.75ZM21 11.25H10a.75.75 0 0 0 0 1.5h11a.75.75 0 0 0 0-1.5Zm0 6.5H10a.75.75 0 0 0 0 1.5h11a.75.75 0 0 0 0-1.5ZM6.75 5.5A2.252 2.252 0 0 1 4.5 7.75 2.252 2.252 0 0 1 2.25 5.5 2.252 2.252 0 0 1 4.5 3.25 2.252 2.252 0 0 1 6.75 5.5Zm-1.5 0a.75.75 0 1 0-1.5 0 .75.75 0 0 0 1.5 0Zm1.5 6.5a2.252 2.252 0 0 1-2.25 2.25A2.252 2.252 0 0 1 2.25 12 2.252 2.252 0 0 1 4.5 9.75 2.252 2.252 0 0 1 6.75 12Zm-1.5 0a.75.75 0 1 0-1.5 0 .75.75 0 0 0 1.5 0Zm1.5 6.5a2.252 2.252 0 0 1-2.25 2.25 2.252 2.252 0 0 1-2.25-2.25 2.252 2.252 0 0 1 2.25-2.25 2.252 2.252 0 0 1 2.25 2.25Zm-1.5 0a.75.75 0 1 0-1.5 0 .75.75 0 0 0 1.5 0Z"/></svg>

<svg width="24" height="24" viewBox="0 0 24 24" fill="none" xmlns="http://www.w3.org/2000/svg">
<path d="M9.25 5.5C9.25 5.086 9.586 4.75 10 4.75H21C21.414 4.75 21.75 5.086 21.75 5.5C21.75 5.914 21.414 6.25 21 6.25H10C9.586 6.25 9.25 5.914 9.25 5.5ZM21 11.25H10C9.586 11.25 9.25 11.586 9.25 12C9.25 12.414 9.586 12.75 10 12.75H21C21.414 12.75 21.75 12.414 21.75 12C21.75 11.586 21.414 11.25 21 11.25ZM21 17.75H10C9.586 17.75 9.25 18.086 9.25 18.5C9.25 18.914 9.586 19.25 10 19.25H21C21.414 19.25 21.75 18.914 21.75 18.5C21.75 18.086 21.414 17.75 21 17.75ZM6.75 5.5C6.75 6.741 5.741 7.75 4.5 7.75C3.259 7.75 2.25 6.741 2.25 5.5C2.25 4.259 3.259 3.25 4.5 3.25C5.741 3.25 6.75 4.259 6.75 5.5ZM5.25 5.5C5.25 5.086 4.914 4.75 4.5 4.75C4.086 4.75 3.75 5.086 3.75 5.5C3.75 5.914 4.086 6.25 4.5 6.25C4.914 6.25 5.25 5.914 5.25 5.5ZM6.75 12C6.75 13.241 5.741 14.25 4.5 14.25C3.259 14.25 2.25 13.241 2.25 12C2.25 10.759 3.259 9.75 4.5 9.75C5.741 9.75 6.75 10.759 6.75 12ZM5.25 12C5.25 11.586 4.914 11.25 4.5 11.25C4.086 11.25 3.75 11.586 3.75 12C3.75 12.414 4.086 12.75 4.5 12.75C4.914 12.75 5.25 12.414 5.25 12ZM6.75 18.5C6.75 19.741 5.741 20.75 4.5 20.75C3.259 20.75 2.25 19.741 2.25 18.5C2.25 17.259 3.259 16.25 4.5 16.25C5.741 16.25 6.75 17.259 6.75 18.5ZM5.25 18.5C5.25 18.086 4.914 17.75 4.5 17.75C4.086 17.75 3.75 18.086 3.75 18.5C3.75 18.914 4.086 19.25 4.5 19.25C4.914 19.25 5.25 18.914 5.25 18.5Z" fill="currentColor"/>
</svg>
